Origami/48x48/apps/megaglest.svg

<svg width="48" height="48" version="1" xmlns="http://www.w3.org/2000/svg">
 <path d="m16 4.9998964a12 18 0 0 0 -12 18 12 18 0 0 0 4.2988281 13.800781c-0.8938016 0.210246-1.3984375 0.353516-1.3984375 0.353516a4.0004 4.0004 0 1 0 2.1992188 7.691406s6.4929836-1.845703 14.900391-1.845703 14.900391 1.845703 14.900391 1.845703a4.0004 4.0004 0 1 0 2.199218 -7.691406s-0.511153-0.143757-1.412109-0.355469a12 18 0 0 0 4.3125 -13.798828 12 18 0 0 0 -12 -18 12 18 0 0 0 -7.998047 4.6113281 12 18 0 0 0 -8.001953 -4.6113281z" style="opacity:.2"/>
 <ellipse cx="16" cy="22" rx="12" ry="18" style="fill:#fbba22"/>
 <ellipse cx="32" cy="22" rx="12" ry="18" style="fill:#fbba22"/>
 <path d="m8 40s7-2 16-2 16 2 16 2" style="fill:none;stroke-linecap:round;stroke-linejoin:round;stroke-width:8;stroke:#ea8504"/>
 <path d="m16 10c-0.881728 0-2.101946 0.514249-3.492188 2.599609-1.390238 2.08536-2.507812 5.510708-2.507812 9.400391s1.117574 7.315031 2.507812 9.400391c0.390528 0.585789 0.765597 1.039666 1.125 1.398437 2.116565-0.317576 4.603685-0.594909 7.367188-0.720703v-16.291016c-0.419987-1.24434-0.938108-2.332942-1.507812-3.1875-1.39024-2.08536-2.61046-2.599609-3.492188-2.599609zm16 0c-0.881728 0-2.101948 0.514249-3.492188 2.599609-0.569704 0.854558-1.087825 1.94316-1.507812 3.1875v16.291016c2.763503 0.125794 5.250623 0.403127 7.367188 0.720703 0.359403-0.358771 0.734472-0.812648 1.125-1.398437 1.390238-2.08536 2.507812-5.510708 2.507812-9.400391s-1.117573-7.315031-2.507812-9.400391c-1.390241-2.08536-2.61046-2.599609-3.492188-2.599609z" style="opacity:.3"/>
 <path d="M 16,4 C 9.372583,4 4,12.058875 4,22 c 0.00354,0.13549 0.00809,0.270915 0.013672,0.40625 C 4.2271094,12.705692 9.529441,5.0057763 16,5 c 2.95484,0.0069 5.8041,1.6488609 8.001953,4.6113281 C 26.198804,6.6502071 29.046508,5.0083443 32,5 38.512816,5.008397 43.832273,12.807725 43.986328,22.574219 43.992922,22.382934 43.99748,22.191503 44,22 44,12.058875 38.627417,4 32,4 29.046508,4.0083443 26.198804,5.6502071 24.001953,8.6113281 21.8041,5.6488609 18.95484,4.0069027 16,4 Z" style="fill:#ffffff;opacity:.2"/>
</svg>

<svg xmlns="http://www.w3.org/2000/svg" width="48" height="48" version="1">
 <path style="opacity:0.2" d="M 16,4.9998964 A 12,18 0 0 0 4,22.999896 12,18 0 0 0 8.2988281,36.800677 c -0.8938016,0.210246 -1.3984375,0.353516 -1.3984375,0.353516 a 4.0004,4.0004 0 1 0 2.1992188,7.691406 c 0,0 6.4929836,-1.845703 14.9003906,-1.845703 8.407407,0 14.900391,1.845703 14.900391,1.845703 a 4.0004,4.0004 0 1 0 2.199218,-7.691406 c 0,0 -0.511153,-0.143757 -1.412109,-0.355469 A 12,18 0 0 0 44,22.999896 12,18 0 0 0 32,4.9998964 12,18 0 0 0 24.001953,9.6112245 12,18 0 0 0 16,4.9998964 Z"/>
 <ellipse style="fill:#fbba22" cx="16" cy="22" rx="12" ry="18"/>
 <ellipse style="fill:#fbba22" cx="32" cy="22" rx="12" ry="18"/>
 <path style="fill:none;stroke:#ea8504;stroke-width:8;stroke-linecap:round;stroke-linejoin:round" d="m 8,40 c 0,0 7,-2 16,-2 9,0 16,2 16,2"/>
 <path style="opacity:0.3" d="M 16 10 C 15.118272 10 13.898054 10.514249 12.507812 12.599609 C 11.117574 14.684969 10 18.110317 10 22 C 10 25.889683 11.117574 29.315031 12.507812 31.400391 C 12.89834 31.98618 13.273409 32.440057 13.632812 32.798828 C 15.749377 32.481252 18.236497 32.203919 21 32.078125 L 21 15.787109 C 20.580013 14.542769 20.061892 13.454167 19.492188 12.599609 C 18.101948 10.514249 16.881728 10 16 10 z M 32 10 C 31.118272 10 29.898052 10.514249 28.507812 12.599609 C 27.938108 13.454167 27.419987 14.542769 27 15.787109 L 27 32.078125 C 29.763503 32.203919 32.250623 32.481252 34.367188 32.798828 C 34.726591 32.440057 35.10166 31.98618 35.492188 31.400391 C 36.882426 29.315031 38 25.889683 38 22 C 38 18.110317 36.882427 14.684969 35.492188 12.599609 C 34.101947 10.514249 32.881728 10 32 10 z"/>
 <path style="opacity:0.2;fill:#ffffff" d="M 16,4 C 9.372583,4 4,12.058875 4,22 c 0.00354,0.13549 0.00809,0.270915 0.013672,0.40625 C 4.2271094,12.705692 9.529441,5.0057763 16,5 c 2.95484,0.0069 5.8041,1.6488609 8.001953,4.6113281 C 26.198804,6.6502071 29.046508,5.0083443 32,5 38.512816,5.008397 43.832273,12.807725 43.986328,22.574219 43.992922,22.382934 43.99748,22.191503 44,22 44,12.058875 38.627417,4 32,4 29.046508,4.0083443 26.198804,5.6502071 24.001953,8.6113281 21.8041,5.6488609 18.95484,4.0069027 16,4 Z"/>
</svg>
